packages/foundations/assets/icons/functional/images/transportation/bike_inverted.svg

<svg xmlns="http://www.w3.org/2000/svg" width="32" height="32" fill="none"><path fill="#1A1C1F" fill-rule="evenodd" d="M21.798 7.435c-1.288.297-1.437.36-1.598.675-.143.281-.116.484.195 1.454.194.603.268.904.227.919-.072.026-7.105 1.624-7.148 1.624-.026 0-.727-2.128-.727-2.207 0-.019.307-.033.682-.033.601 0 .71-.015.919-.12.313-.158.479-.41.479-.729 0-.322-.147-.589-.406-.737-.206-.118-.228-.119-2.421-.119s-2.215.001-2.422.119c-.472.27-.553.888-.171 1.311.174.194.332.238.958.271l.578.03.475 1.467c.261.807.475 1.486.475 1.509s-.364.479-.809 1.013l-.825.992c-.009.012-.194-.066-.411-.171-1.715-.837-3.786-.683-5.382.4-1.652 1.121-2.56 3.186-2.261 5.14a5.3 5.3 0 0 0 1.408 2.905c.975 1.031 2.206 1.61 3.591 1.688 3.598.205 6.364-3.161 5.47-6.656a5.3 5.3 0 0 0-.799-1.742 5 5 0 0 1-.302-.47c0-.067.937-1.131.967-1.098.018.02.402 1.176.853 2.569.881 2.721.92 2.809 1.31 2.938.121.04.408.054.784.039.661-.026.967-.126 1.213-.396.077-.084 1.167-1.689 2.422-3.567a614 614 0 0 1 2.32-3.458c.021-.024.172.355.335.842l.296.885-.143.087c-.789.475-1.437 1.069-1.874 1.718a5.4 5.4 0 0 0-.658 4.565c1.086 3.445 5.179 4.851 8.148 2.798.524-.362 1.215-1.096 1.535-1.631.532-.888.828-2.08.76-3.054-.172-2.449-1.887-4.441-4.236-4.921-.383-.079-.67-.099-1.213-.087l-.712.016-.077-.24a482 482 0 0 0-1.557-4.809c-.011-.02.322-.114.74-.211.694-.159.778-.191.956-.366a.826.826 0 0 0 .087-1.095c-.131-.167-.487-.344-.682-.34-.074.001-.681.129-1.349.283m-2.065 5.019c0 .091-4.162 6.213-4.183 6.153-.103-.3-1.538-4.778-1.543-4.816-.004-.027 1.265-.342 2.82-.701 3.173-.731 2.906-.672 2.906-.636M8.407 15.968c.143.038.362.115.487.171l.227.101-1.075 1.28c-1.41 1.678-1.379 1.634-1.379 1.968 0 .322.131.569.386.729.212.133.696.122.915-.022.077-.05.661-.716 1.297-1.48l1.157-1.387.093.123c.158.208.417.777.512 1.125.059.219.09.538.091.944.003 1.046-.305 1.783-1.06 2.538-.482.482-.914.748-1.525.938-.325.101-.519.124-1.04.124-.735 0-1.191-.112-1.786-.439-.698-.383-1.404-1.248-1.671-2.045-.319-.953-.186-2.122.344-3.02.231-.392.844-1.005 1.236-1.236.825-.487 1.904-.646 2.791-.412m17.079.038c.581.147 1.081.437 1.55.901.63.623.952 1.265 1.071 2.135.152 1.114-.217 2.185-1.04 3.017-.478.483-.903.745-1.52.937-.571.177-1.509.177-2.08 0a3.69 3.69 0 0 1-2.437-2.383c-.127-.376-.144-.508-.144-1.12.001-.617.017-.74.148-1.12.254-.738.781-1.447 1.397-1.879l.164-.115.575 1.769c.497 1.528.598 1.791.746 1.938a.822.822 0 0 0 1.417-.587c0-.102-.248-.954-.552-1.894s-.54-1.722-.523-1.738c.05-.051.818.036 1.228.139"/></svg>

<svg width="32" height="32" viewBox="0 0 32 32" fill="none" xmlns="http://www.w3.org/2000/svg"><path d="M21.798 7.435 C 20.510 7.732,20.361 7.795,20.200 8.110 C 20.057 8.391,20.084 8.594,20.395 9.564 C 20.589 10.167,20.663 10.468,20.622 10.483 C 20.550 10.509,13.517 12.107,13.474 12.107 C 13.448 12.107,12.747 9.979,12.747 9.900 C 12.747 9.881,13.054 9.867,13.429 9.867 C 14.030 9.867,14.139 9.852,14.348 9.747 C 14.661 9.589,14.827 9.337,14.827 9.018 C 14.827 8.696,14.680 8.429,14.421 8.281 C 14.215 8.163,14.193 8.162,12.000 8.162 C 9.807 8.162,9.785 8.163,9.578 8.281 C 9.106 8.551,9.025 9.169,9.407 9.592 C 9.581 9.786,9.739 9.830,10.365 9.863 L 10.943 9.893 11.418 11.360 C 11.679 12.167,11.893 12.846,11.893 12.869 C 11.893 12.892,11.529 13.348,11.084 13.882 C 10.639 14.416,10.268 14.863,10.259 14.874 C 10.250 14.886,10.065 14.808,9.848 14.703 C 8.133 13.866,6.062 14.020,4.466 15.103 C 2.814 16.224,1.906 18.289,2.205 20.243 C 2.377 21.364,2.852 22.345,3.613 23.148 C 4.588 24.179,5.819 24.758,7.204 24.836 C 10.802 25.041,13.568 21.675,12.674 18.180 C 12.511 17.544,12.267 17.012,11.875 16.438 C 11.709 16.195,11.573 15.983,11.573 15.968 C 11.573 15.901,12.510 14.837,12.540 14.870 C 12.558 14.890,12.942 16.046,13.393 17.439 C 14.274 20.160,14.313 20.248,14.703 20.377 C 14.824 20.417,15.111 20.431,15.487 20.416 C 16.148 20.390,16.454 20.290,16.700 20.020 C 16.777 19.936,17.867 18.331,19.122 16.453 C 20.376 14.576,21.421 13.020,21.442 12.995 C 21.463 12.971,21.614 13.350,21.777 13.837 L 22.073 14.722 21.930 14.809 C 21.141 15.284,20.493 15.878,20.056 16.527 C 19.169 17.842,18.919 19.576,19.398 21.092 C 20.484 24.537,24.577 25.943,27.546 23.890 C 28.070 23.528,28.761 22.794,29.081 22.259 C 29.613 21.371,29.909 20.179,29.841 19.205 C 29.669 16.756,27.954 14.764,25.605 14.284 C 25.222 14.205,24.935 14.185,24.392 14.197 L 23.680 14.213 23.603 13.973 C 22.747 11.306,22.063 9.192,22.046 9.164 C 22.035 9.144,22.368 9.050,22.786 8.953 C 23.480 8.794,23.564 8.762,23.742 8.587 C 24.045 8.290,24.083 7.814,23.829 7.492 C 23.698 7.325,23.342 7.148,23.147 7.152 C 23.073 7.153,22.466 7.281,21.798 7.435 M19.733 12.454 C 19.733 12.545,15.571 18.667,15.550 18.607 C 15.447 18.307,14.012 13.829,14.007 13.791 C 14.003 13.764,15.272 13.449,16.827 13.090 C 20.000 12.359,19.733 12.418,19.733 12.454 M8.407 15.968 C 8.550 16.006,8.769 16.083,8.894 16.139 L 9.121 16.240 8.046 17.520 C 6.636 19.198,6.667 19.154,6.667 19.488 C 6.667 19.810,6.798 20.057,7.053 20.217 C 7.265 20.350,7.749 20.339,7.968 20.195 C 8.045 20.145,8.629 19.479,9.265 18.715 L 10.422 17.328 10.515 17.451 C 10.673 17.659,10.932 18.228,11.027 18.576 C 11.086 18.795,11.117 19.114,11.118 19.520 C 11.121 20.566,10.813 21.303,10.058 22.058 C 9.576 22.540,9.144 22.806,8.533 22.996 C 8.208 23.097,8.014 23.120,7.493 23.120 C 6.758 23.120,6.302 23.008,5.707 22.681 C 5.009 22.298,4.303 21.433,4.036 20.636 C 3.717 19.683,3.850 18.514,4.380 17.616 C 4.611 17.224,5.224 16.611,5.616 16.380 C 6.441 15.893,7.520 15.734,8.407 15.968 M25.486 16.006 C 26.067 16.153,26.567 16.443,27.036 16.907 C 27.666 17.530,27.988 18.172,28.107 19.042 C 28.259 20.156,27.890 21.227,27.067 22.059 C 26.589 22.542,26.164 22.804,25.547 22.996 C 24.976 23.173,24.038 23.173,23.467 22.996 C 22.300 22.634,21.420 21.773,21.030 20.613 C 20.903 20.237,20.886 20.105,20.886 19.493 C 20.887 18.876,20.903 18.753,21.034 18.373 C 21.288 17.635,21.815 16.926,22.431 16.494 L 22.595 16.379 23.170 18.148 C 23.667 19.676,23.768 19.939,23.916 20.086 C 24.453 20.624,25.333 20.259,25.333 19.499 C 25.333 19.397,25.085 18.545,24.781 17.605 C 24.477 16.665,24.241 15.883,24.258 15.867 C 24.308 15.816,25.076 15.903,25.486 16.006 " fill="#1A1C1F" stroke="none" fill-rule="evenodd"></path></svg>
